X:933
T:Joe Tom's
T:Joe Tam's
R:reel
C:John Faulkner
D:Tony O'Connell & Andy Morrow
Z:id:hn-reel-933
M:C|
L:1/8
K:Edor
E2BE cEBE | E2DB, A,B,DF | E2BE cEBE | cdAG FEDF |
E2BE cEBE | E2DB, A,B,DF | EFGA Bcde |1 fded cAFD :|2 fded cAdc ||
|: ~B3e fB~B2 | cBAF Bcde | f2ba faaf | (3gfe fd efga |
bf~f2 af~f2 | (3gfe fd edcA | ~B3c dcde |1 fded cAdc :|2 fded cAFD ||

